X: 133
T: Xiu hebao
%%abc-version 2.0
%%abcx-abcm2ps-target-version 5.9.1 (29 Sep 2008)
%%abc-creator hum2abc beta
%%abcx-conversion-date 2013/10/02 07:52:29
%%abc-edited-by Helmut Schaffrath
%%humdrum-veritas 1363669717
%%humdrum-veritas-data 3472020913
%%continueall 1
%%barnumbers 0
L: 1/8
M: 3/8
K: G
F A B [I:setbarnb 1]| 
G F E | 
d e g | 
D3 | 
d d e | 
g d B | 
d G B | 
A3 | 
d F E | 
d d e | 
F A B | 
G3 | 
A A B | 
d F E | 
G D E | 
D3 |]  



